X:1
T:Pascha nostrum
T:Pascha nostrum
T:Anon
T:©cpdl
T:©cpdl
T:©cpdl
C:Anon
Z:©cpdl
%%score [ 1 2 3 ]
L:1/8
Q:1/4=120
M:2/2
K:F
V:1 tenor nm="Tenor" snm="T"
V:2 tenor nm="Baritone" snm="B"
V:3 bass3 nm="Bass" snm="B"
V:1
 F,8 | !stemless![C,F]2 | z20 |[M:2/2] F,3 G, A,2 B,2- | B,A, G,4 ^F,2 | G,2 B,2 C2 F,2- | %6
w: |||im- * * mo-||la- * * *|
 F,2 C3 B, B,2- | B,2 A,2 B,4 | G,4 z2 A,2 | C2 F,2 G,4 | F,4 z2 A,2 | A,2 B,2 A,2 F,2 | B,2 A,6 | %13
w: * * * tus|_ _ est|_ Chri-||stus, Al-|le- * * *|lu- ia:|
 A,2 D2 C4 | A,4 z2 D2- | DC C4 =B,2 | C4 z2 A,2 | E,2 F,2 G,2 F,2 | G,4 A,4 | G,2 B,2 A,4 | %20
w: i- ta- que|_ e-|* pu- le- *|mur in|a- * * *|zy- *|mis sin- ce-|
 D2 C3 B, B,2- | B,2 A,2 B,4 | G,4 z2 A,2 | C2 F,2 G,4 | F,4 z2 A,2 | A,2 B,2 A,2 G,2 | A,4 G,4 | %27
w: * * ri- ta-|* * tis|_ et|ve- ri- ta-|tis, al-|le- * * *|lu- *|
 F,4 z2 F2 | C2 B,2 C2 D2- | D2 ^C2 D4 | A,4 F,2 G,2 | A,2 B,2 A,2 F,2 | G,4 F,2 C,2 | %33
w: ia al-|le- * * lu-|* * ia|al- le- *|* * lu- *|ia al- le-|
 D,4 !fermata!C,4 |] %34
w: lu- ia|
V:2
 F,8 | !stemless![C,B,]2 | %2
w: ||
 !stemless!F,2 (!stemless!G,2 !stemless!A,2 !stemless!G,2 !stemless!A,2) !stemless!F,2 (!stemless!F,2 !stemless!D,2 !stemless!F,2 !stemless!C,2) | %3
w: Pas- cha _ _ _ no- strum _ _ _|
[M:2/2] F,4 F,4 | G,4 A,4 | G,4 A,4- | A,2 G,3 F, F,2- | F,2 E,2 F,4 | E,3 F, G,2 A,2- | %9
w: im- mo-|la- *||* * * tus|_ _ est|Chri- * * *|
 A,G, F,4 E,2 | F,4 z2 F,2 | F,2 D,2 F,2 A,2 | G,2 F,4 D,2 | F,2 D,2 F,2 F,2 | F,2 F,2 E,2 D,2 | %15
w: |stus, Al-|le- * * *|lu- ia: i-|ta- * que e-|pu- le- * *|
 E,2 C,2 D,4 | C,4 z2 F,2 | G,2 A,2 G,2 A,2- | A,G, G,4 ^F,2 | G,4 z2 F,2 | D,2 G,3 F, F,2- | %21
w: |mur in|a- * * zy-||mis sin-|ce- ri- * ta-|
 F,2 E,2 F,2 F,2 | E,3 F, G,2 A,2- | A,G, F,4 E,2 | F,4 z2 F,2 | F,2 D,2 F,2 E,2 | D,2 F,2 C,4 | %27
w: * * tis et|ve- * * ri-|* * ta- *|tis, al-|le- * * *|lu- * ia|
 z2 D,2 F,3 G, | A,2 B,3 A, A,2- | A,2 G,2 A,4 | F,3 G, A,2 B,2 | A,2 G,3 F, F,2- | F,2 E,2 F,4- | %33
w: al- le- *|* * * lu-|* * ia|al- * * *|le- * * lu-|* * ia|
 !fermata!F,8 |] %34
w: _|
V:3
 F,8 | !stemless![F,,A,]2 | z20 |[M:2/2] F,3 E, D,2 C,2 | _E,4 D,4 | z2 G,2 F,2 D,2 | %6
w: |||im- * * mo-|la- tus|im- * mo-|
 F,2 C,2 D,2 B,,2 | C,4 B,,4 | C,3 D, E,2 F,2- | F,E, D,2 C,4 | D,4 z2 D,2 | D,2 G,,2 D,4 | %12
w: la- * * *|tus est|Chri- * * *||stus, Al-|le- * lu-|
 _E,2 F,2 D,2 F,2 | D,2 F,3 G, A,2- | A,2 D,2 G,2 A,2- | A,G, G,4 F,2 | G,4 z2 D,2 | %17
w: * ia: i- ta-|que e- * *|* * * pu-|* * le- *|mur in|
 C,2 F,2 E,2 D,2 | E,4 D,4 | E,2 G,2 C,2 D,2 | B,,2 C,2 D,2 B,,2 | C,4 B,,4 | C,3 D, E,2 F,2- | %23
w: a- * * *|zy- *|mis sin- ce- ri-|ta- * * *|* tis|et _ _ ve-|
 F,E, D,2 C,4 | D,4 z2 D,2 | D,2 G,,2 D,2 G,2- | G,F, F,4 E,2 | F,2 B,,2 D,3 E, | F,2 G,2 F,2 D,2 | %29
w: * * ri- ta-|tis, al-|le- * * *|* * lu- *|ia al- le- *||
 E,4 D,4 | z2 D,4 G,2 | F,2 _E,2 F,2 D,2 | C,4 F,,4 | B,,4 !fermata!F,,4 |] %34
w: lu- ia|al- *|le- * * *|lu- ia|_ _|

